app/src/main/assets/symbols/tourist/theatre.svg

<?xml version="1.0" encoding="UTF-8" standalone="no"?>
<svg
   xmlns:dc="http://purl.org/dc/elements/1.1/"
   xmlns:cc="http://creativecommons.org/ns#"
   xmlns:rdf="http://www.w3.org/1999/02/22-rdf-syntax-ns#"
   xmlns:svg="http://www.w3.org/2000/svg"
   xmlns="http://www.w3.org/2000/svg"
   version="1.1"
   width="16"
   height="16"
   viewBox="0 0 16 16"
   id="svg2">
  <metadata id="metadata8">
    <rdf:RDF>
      <cc:Work rdf:about="">
        <dc:format>image/svg+xml</dc:format>
        <dc:type rdf:resource="http://purl.org/dc/dcmitype/StillImage"/>
        <dc:title/>
      </cc:Work>
    </rdf:RDF>
  </metadata>
  <defs id="defs6"/>
  <rect width="16" height="16" x="0" y="0" id="canvas" style="fill:none;stroke:none;visibility:hidden"/>
  <path d="m 0,0 0,7 c 0,0 0,4 4,4 0.487694,0 0.905229,-0.08308 1.28125,-0.1875 C 5.222862,10.329209 5.25,10 5.25,10 l 0,-0.21875 C 4.906989,9.915179 4.490013,10 4,10 1,10 1,7 1,7 L 1,1.5 c 2,0.9520605 4,0.9520605 6,0 L 7,2.65625 C 7.334486,2.7893793 7.676632,2.9137483 8,3 L 8,0 C 5,1.3728814 3,1.3050847 0,0 z m 2.5,3 c -0.552285,0 -1,0.4477153 -1,1 0,0.5522847 0.447715,1 1,1 0.552285,0 1,-0.4477153 1,-1 0,-0.5522847 -0.447715,-1 -1,-1 z M 6,3 6,10 c 0,0 0,4 4,4 4,0 4,-4 4,-4 L 14,3 C 11,4.3728814 9,4.3050847 6,3 z m 2.5,3 c 0.552285,0 1,0.4477153 1,1 0,0.552285 -0.447715,1 -1,1 -0.552285,0 -1,-0.447715 -1,-1 0,-0.5522847 0.447715,-1 1,-1 z m 3,0 c 0.552285,0 1,0.4477153 1,1 0,0.552285 -0.447715,1 -1,1 -0.552285,0 -1,-0.447715 -1,-1 0,-0.5522847 0.447715,-1 1,-1 z M 4,6.5 c -1.46224,0 -2,1.016949 -2,2 l 3.25,0 0,-1.65625 C 4.945701,6.6221969 4.545878,6.5 4,6.5 z m 4,3.5 4,0 c 0,1 -1,2 -2,2 -1,0 -2,-1 -2,-2 z" id="theatre" style="fill:#734a08;fill-opacity:1;stroke:none" transform="translate(1,1)"/>
</svg>

<?xml version="1.0" encoding="UTF-8"?>
<svg version="1.1" viewBox="0 0 16 16" xmlns="http://www.w3.org/2000/svg" xmlns:cc="http://creativecommons.org/ns#" xmlns:dc="http://purl.org/dc/elements/1.1/" xmlns:rdf="http://www.w3.org/1999/02/22-rdf-syntax-ns#">
<metadata>
<rdf:RDF>
<cc:Work rdf:about="">
<dc:format>image/svg+xml</dc:format>
<dc:type rdf:resource="http://purl.org/dc/dcmitype/StillImage"/>
<dc:title/>
</cc:Work>
</rdf:RDF>
</metadata>
<rect width="16" height="16" fill="none" visibility="hidden"/>
<path transform="translate(1,1)" d="m0 0v7s0 4 4 4c0.48769 0 0.90523-0.08308 1.2812-0.1875-0.058388-0.48329-0.03125-0.8125-0.03125-0.8125v-0.21875c-0.34301 0.13393-0.75999 0.21875-1.25 0.21875-3 0-3-3-3-3v-5.5c2 0.95206 4 0.95206 6 0v1.1562c0.33449 0.13313 0.67663 0.2575 1 0.34375v-3c-3 1.3729-5 1.3051-8 0zm2.5 3c-0.55228 0-1 0.44772-1 1s0.44772 1 1 1 1-0.44772 1-1-0.44772-1-1-1zm3.5 0v7s0 4 4 4 4-4 4-4v-7c-3 1.3729-5 1.3051-8 0zm2.5 3c0.55228 0 1 0.44772 1 1 0 0.55228-0.44772 1-1 1s-1-0.44772-1-1c0-0.55228 0.44772-1 1-1zm3 0c0.55228 0 1 0.44772 1 1 0 0.55228-0.44772 1-1 1s-1-0.44772-1-1c0-0.55228 0.44772-1 1-1zm-7.5 0.5c-1.4622 0-2 1.0169-2 2h3.25v-1.6562c-0.3043-0.22155-0.70412-0.34375-1.25-0.34375zm4 3.5h4c0 1-1 2-2 2s-2-1-2-2z" fill="#734a08"/>
</svg>
